static/logos/honda-wordmark-white.svg

<svg width="65" height="50" viewBox="0 0 65 50" fill="none" xmlns="http://www.w3.org/2000/svg">
<g clip-path="url(#clip0_1204_208)">
<mask id="mask0_1204_208" style="mask-type:luminance" maskUnits="userSpaceOnUse" x="0" y="0" width="65" height="50">
<path d="M64.5 0H0.5V50H64.5V0Z" fill="white"/>
</mask>
<g mask="url(#mask0_1204_208)">
<path fill-rule="evenodd" clip-rule="evenodd" d="M30.3041 36.0811L14.668 37.7625L17.7548 40.7739H39.891L31.6843 35.9297L30.3041 36.0811ZM30.3041 23.6072L51.8383 17.8595C51.8383 17.8595 54.9756 17.6337 58.0877 10.5812L30.3041 19.692L8.69451 26.7442C8.69451 26.7442 6.83716 27.3465 6.10936 27.8485C6.10936 27.8485 5.60734 28.15 5.60734 28.8522C5.60734 28.8522 5.65747 29.3795 6.03399 29.7563L6.96267 30.685L18.7586 27.6227C18.7586 27.6227 18.0308 26.6688 19.4864 26.4683L30.3041 23.6072ZM30.3041 34.8509C30.329 35.1019 30.5299 35.3284 30.5299 35.3284L30.3041 35.353L13.915 37.2103L10.8025 34.2991L30.3038 30.8102L46.9685 27.8485C44.2332 33.22 38.7113 33.22 38.7113 33.22L31.8347 34.0982C30.6803 34.1235 30.3542 34.4243 30.3038 34.7261L30.3041 34.8509ZM30.3041 25.5645L53.018 19.8175C50.3326 25.8912 44.9365 26.0918 44.9365 26.0918L30.3041 29.0534L25.5103 30.0319C23.2011 30.0824 24.2051 31.2621 24.2051 31.2621L10.2255 33.6467L7.61543 31.3374L30.3041 25.5645ZM30.3041 13.2918L62.0534 0.315918C62.0534 0.315918 60.9737 3.5037 60.296 5.13494C60.296 5.13494 59.4679 7.7201 56.1553 8.74905L30.3041 17.8851L7.89134 25.7657C7.89134 25.7657 5.00537 26.795 4.52825 27.9999C4.52825 27.9999 3.85059 29.3798 5.68304 30.9364L16.5001 40.7746H12.2588L3.54977 32.2412C3.54977 32.2412 1.59215 30.6349 1.44141 28.3509V27.8741C1.46664 27.7237 1.46664 27.5733 1.51678 27.3973C1.51678 27.3973 1.89329 24.8872 5.6578 23.3565L30.3041 13.2918ZM7.21368 42.3806H1.59215V43.7612H2.87177V47.9523H1.59215V49.3831H7.21368V47.9523H5.83345V46.6223H9.97481V47.9523H8.61948V49.3831H14.1663V47.9523H12.8362V43.7612H14.1663V42.3806H8.59424V43.7612H9.97481V45.1411H5.83345V43.7612H7.21368V42.3806ZM56.582 45.6185H57.661L56.582 43.987L56.4561 43.8366L55.4776 45.6185H56.582ZM56.582 42.3806H58.8155L62.1786 47.9523H63.5591V49.3831H57.51V47.9523H58.8653L58.2882 47.1243H54.6243L54.1724 47.9523H55.5025V49.3831H50.8346V47.9523H52.2653L54.5739 43.7612H53.018V42.3806H56.582ZM45.8147 47.877C47.1448 47.7266 47.923 47.2245 47.923 45.9194C47.923 44.4136 47.0448 43.9368 45.8147 43.811C45.5889 43.7858 45.3628 43.7858 45.1124 43.7858H43.7067V47.9271H44.8362C45.1875 47.9271 45.5135 47.9022 45.8147 47.877ZM45.8147 42.3806H46.7181C49.0274 42.3806 50.7595 43.4597 50.7595 45.9194C50.7595 48.7552 49.128 49.3329 45.8147 49.3831H39.5152V47.9523H40.8705V43.7612H39.5152V42.3806H45.8147ZM20.0641 48.2034C21.3693 48.1781 22.3982 47.1495 22.3982 45.8941C22.3982 44.564 21.344 43.5603 20.0641 43.5603H20.0388C18.7589 43.5603 17.7299 44.564 17.7299 45.8696C17.7299 47.099 18.7087 48.2034 20.0139 48.2034H20.0641ZM20.0641 42.029H20.1394C23.4272 42.029 25.5857 43.2592 25.5857 45.7942C25.5857 48.128 23.6028 49.6839 20.0641 49.6839H19.9638C16.5253 49.6839 14.4671 48.3538 14.4671 45.8443C14.4671 43.4348 16.5001 42.029 20.0641 42.029ZM31.5841 42.3806H26.0376V43.7612H27.3677V47.9523H26.0376V49.3831H30.4548V47.9523H29.0743V44.3635L32.9646 49.3827H37.2564V43.7609H38.6615V42.3803H34.0935V43.7609H35.5242V47.45L31.5841 42.3806Z" fill="white"/>
</g>
</g>
<defs>
<clipPath id="clip0_1204_208">
<rect width="64" height="50" fill="white" transform="translate(0.5)"/>
</clipPath>
</defs>
</svg>

<svg xmlns="http://www.w3.org/2000/svg" width="83.2" height="64" fill="none" viewBox="0 0 65 50"><g clip-path="url(#a)"><mask id="b" width="65" height="50" x="0" y="0" maskUnits="userSpaceOnUse" style="mask-type:luminance"><path fill="#fff" d="M64.5 0H.5v50h64z"/></mask><g mask="url(#b)"><path fill="#fff" fill-rule="evenodd" d="m30.304 36.081-15.636 1.681 3.087 3.012H39.89l-8.207-4.844zm0-12.474 21.534-5.747s3.138-.226 6.25-7.279l-27.784 9.111-21.61 7.052s-1.857.602-2.585 1.105c0 0-.502.301-.502 1.003 0 0 .05.527.427.904l.929.929 11.796-3.062s-.728-.954.727-1.155zm0 11.244c.025.25.226.477.226.477l-.226.025-16.389 1.857-3.112-2.91 19.5-3.49 16.665-2.961c-2.735 5.371-8.257 5.371-8.257 5.371l-6.876.878c-1.155.026-1.48.326-1.531.628zm0-9.286 22.714-5.748c-2.685 6.074-8.081 6.275-8.081 6.275l-14.633 2.961-4.794.979c-2.309.05-1.305 1.23-1.305 1.23l-13.98 2.385-2.61-2.31zm0-12.273L62.054.316s-1.08 3.188-1.758 4.819c0 0-.828 2.585-4.14 3.614l-25.852 9.136-22.413 7.88S5.005 26.796 4.528 28c0 0-.677 1.38 1.155 2.936L16.5 40.775H12.26l-8.71-8.534s-1.957-1.606-2.108-3.89v-.477c.026-.15.026-.3.076-.477 0 0 .376-2.51 4.14-4.04zM7.214 42.38H1.592v1.38h1.28v4.191h-1.28v1.431h5.622v-1.43h-1.38v-1.33h4.14v1.33H8.62v1.43h5.547v-1.43h-1.33V43.76h1.33v-1.38H8.594v1.38h1.38v1.38h-4.14v-1.38h1.38zm49.368 3.237h1.079l-1.079-1.631-.126-.15-.978 1.781zm0-3.237h2.233l3.364 5.571h1.38v1.431H57.51v-1.43h1.355l-.577-.829h-3.664l-.452.828h1.33v1.431h-4.667v-1.43h1.43l2.309-4.192h-1.556v-1.38zm-10.767 5.496c1.33-.15 2.108-.653 2.108-1.958 0-1.505-.878-1.982-2.108-2.108-.226-.025-.452-.025-.703-.025h-1.405v4.141h1.13c.35 0 .676-.025.978-.05m0-5.496h.903c2.31 0 4.041 1.079 4.041 3.538 0 2.836-1.631 3.414-4.944 3.464h-6.3v-1.43h1.355V43.76h-1.355v-1.38zm-25.75 5.822c1.304-.025 2.333-1.053 2.333-2.309a2.314 2.314 0 0 0-2.334-2.334h-.025a2.287 2.287 0 0 0-2.31 2.31c0 1.229.98 2.333 2.285 2.333zm0-6.174h.074c3.288 0 5.447 1.23 5.447 3.765 0 2.334-1.983 3.89-5.522 3.89h-.1c-3.439 0-5.497-1.33-5.497-3.84 0-2.41 2.033-3.815 5.597-3.815m11.52.352h-5.547v1.38h1.33v4.191h-1.33v1.431h4.417v-1.43h-1.38v-3.59l3.89 5.02h4.291V43.76h1.405v-1.38h-4.568v1.38h1.431v3.689z" clip-rule="evenodd"/></g></g><defs><clipPath id="a"><path fill="#fff" d="M.5 0h64v50H.5z"/></clipPath></defs></svg>
